images/171939.svg

<?xml version="1.0" encoding="UTF-8"?>
<svg xmlns="http://www.w3.org/2000/svg" xmlns:xlink="http://www.w3.org/1999/xlink" width="300pt" height="300pt" viewBox="0 0 300 300" version="1.1">
<defs>
<g>
<symbol overflow="visible" id="glyph0-0">
<path style="stroke:none;" d="M 0.59375 2.125 L 0.59375 -8.46875 L 6.59375 -8.46875 L 6.59375 2.125 Z M 1.265625 1.453125 L 5.9375 1.453125 L 5.9375 -7.78125 L 1.265625 -7.78125 Z M 1.265625 1.453125 "/>
</symbol>
<symbol overflow="visible" id="glyph0-1">
<path style="stroke:none;" d="M 4.734375 -7.953125 C 3.867188 -7.953125 3.179688 -7.628906 2.671875 -6.984375 C 2.171875 -6.347656 1.921875 -5.472656 1.921875 -4.359375 C 1.921875 -3.265625 2.171875 -2.394531 2.671875 -1.75 C 3.179688 -1.113281 3.867188 -0.796875 4.734375 -0.796875 C 5.585938 -0.796875 6.265625 -1.113281 6.765625 -1.75 C 7.273438 -2.394531 7.53125 -3.265625 7.53125 -4.359375 C 7.53125 -5.472656 7.273438 -6.347656 6.765625 -6.984375 C 6.265625 -7.628906 5.585938 -7.953125 4.734375 -7.953125 Z M 4.734375 -8.90625 C 5.953125 -8.90625 6.925781 -8.492188 7.65625 -7.671875 C 8.394531 -6.847656 8.765625 -5.742188 8.765625 -4.359375 C 8.765625 -2.984375 8.394531 -1.882812 7.65625 -1.0625 C 6.925781 -0.238281 5.953125 0.171875 4.734375 0.171875 C 3.503906 0.171875 2.519531 -0.238281 1.78125 -1.0625 C 1.039062 -1.882812 0.671875 -2.984375 0.671875 -4.359375 C 0.671875 -5.742188 1.039062 -6.847656 1.78125 -7.671875 C 2.519531 -8.492188 3.503906 -8.90625 4.734375 -8.90625 Z M 4.734375 -8.90625 "/>
</symbol>
<symbol overflow="visible" id="glyph0-2">
<path style="stroke:none;" d="M 1.171875 -8.75 L 2.359375 -8.75 L 2.359375 -5.15625 L 6.65625 -5.15625 L 6.65625 -8.75 L 7.84375 -8.75 L 7.84375 0 L 6.65625 0 L 6.65625 -4.171875 L 2.359375 -4.171875 L 2.359375 0 L 1.171875 0 Z M 1.171875 -8.75 "/>
</symbol>
</g>
</defs>
<g id="surface20025">
<rect x="0" y="0" width="300" height="300" style="fill:rgb(100%,100%,100%);fill-opacity:1;stroke:none;"/>
<path style="fill:none;stroke-width:1.2;stroke-linecap:butt;stroke-linejoin:miter;stroke:rgb(100%,0%,0%);stroke-opacity:1;stroke-miterlimit:10;" d="M 130.410156 165.347656 L 115.949219 162.925781 "/>
<path style="fill:none;stroke-width:1.2;stroke-linecap:butt;stroke-linejoin:miter;stroke:rgb(0%,0%,0%);stroke-opacity:1;stroke-miterlimit:10;" d="M 115.949219 162.925781 L 101.488281 160.5 "/>
<path style="fill:none;stroke-width:1.2;stroke-linecap:butt;stroke-linejoin:miter;stroke:rgb(0%,0%,0%);stroke-opacity:1;stroke-miterlimit:10;" d="M 149.066406 142.726562 L 139.738281 154.039062 "/>
<path style="fill:none;stroke-width:1.2;stroke-linecap:butt;stroke-linejoin:miter;stroke:rgb(100%,0%,0%);stroke-opacity:1;stroke-miterlimit:10;" d="M 139.738281 154.039062 L 130.410156 165.347656 "/>
<path style=" stroke:none;fill-rule:nonzero;fill:rgb(100%,100%,100%);fill-opacity:1;" d="M 125.410156 158.347656 L 135.410156 158.347656 L 135.410156 172.347656 L 125.410156 172.347656 Z M 125.410156 158.347656 "/>
<g style="fill:rgb(100%,0%,0%);fill-opacity:1;">
  <use xlink:href="#glyph0-1" x="125.410156" y="169.486328"/>
</g>
<path style="fill:none;stroke-width:1.2;stroke-linecap:butt;stroke-linejoin:miter;stroke:rgb(0%,0%,0%);stroke-opacity:1;stroke-miterlimit:10;" d="M 101.488281 160.5 L 91.226562 133.03125 "/>
<path style="fill:none;stroke-width:1.2;stroke-linecap:butt;stroke-linejoin:miter;stroke:rgb(0%,0%,0%);stroke-opacity:1;stroke-miterlimit:10;" d="M 94 160.167969 L 85.789062 138.191406 "/>
<path style="fill:none;stroke-width:1.2;stroke-linecap:butt;stroke-linejoin:miter;stroke:rgb(0%,0%,0%);stroke-opacity:1;stroke-miterlimit:10;" d="M 82.828125 183.121094 L 101.488281 160.5 "/>
<path style="fill:none;stroke-width:1.2;stroke-linecap:butt;stroke-linejoin:miter;stroke:rgb(0%,0%,0%);stroke-opacity:1;stroke-miterlimit:10;" d="M 91.226562 133.03125 L 109.886719 110.410156 "/>
<path style="fill:none;stroke-width:1.2;stroke-linecap:butt;stroke-linejoin:miter;stroke:rgb(0%,0%,0%);stroke-opacity:1;stroke-miterlimit:10;" d="M 91.226562 133.03125 L 62.308594 128.183594 "/>
<path style="fill:none;stroke-width:1.2;stroke-linecap:butt;stroke-linejoin:miter;stroke:rgb(0%,0%,0%);stroke-opacity:1;stroke-miterlimit:10;" d="M 109.886719 110.410156 L 138.808594 115.257812 "/>
<path style="fill:none;stroke-width:1;stroke-linecap:butt;stroke-linejoin:miter;stroke:rgb(0%,0%,0%);stroke-opacity:1;stroke-miterlimit:10;" d="M 138.808594 115.257812 L 138.808594 115.257812 M 141.089844 113.308594 L 140.285156 112.644531 M 143.371094 111.363281 L 141.761719 110.035156 M 145.652344 109.414062 L 143.238281 107.425781 M 147.933594 107.46875 L 144.71875 104.8125 M 150.21875 105.519531 L 146.195312 102.203125 M 152.5 103.574219 L 147.671875 99.59375 M 154.78125 101.625 L 149.152344 96.980469 M 157.0625 99.679688 L 150.628906 94.371094 M 159.34375 97.730469 L 152.105469 91.757812 M 161.457031 95.929688 L 153.472656 89.34375 "/>
<path style="fill:none;stroke-width:1.2;stroke-linecap:butt;stroke-linejoin:miter;stroke:rgb(0%,0%,0%);stroke-opacity:1;stroke-miterlimit:10;" d="M 138.808594 115.257812 L 149.066406 142.726562 "/>
<path style=" stroke:none;fill-rule:nonzero;fill:rgb(100%,100%,100%);fill-opacity:1;" d="M 148.464844 85.636719 L 167.464844 85.636719 L 167.464844 99.636719 L 148.464844 99.636719 Z M 148.464844 85.636719 "/>
<g style="fill:rgb(100%,0%,0%);fill-opacity:1;">
  <use xlink:href="#glyph0-1" x="148.464844" y="96.775391"/>
  <use xlink:href="#glyph0-2" x="157.910156" y="96.775391"/>
</g>
<path style=" stroke:none;fill-rule:nonzero;fill:rgb(0%,0%,0%);fill-opacity:1;" d="M 149.066406 142.726562 L 177.132812 152.679688 L 178.84375 142.472656 Z M 149.066406 142.726562 "/>
<path style="fill:none;stroke-width:1.2;stroke-linecap:butt;stroke-linejoin:miter;stroke:rgb(0%,0%,0%);stroke-opacity:1;stroke-miterlimit:10;" d="M 177.988281 147.574219 L 188.25 175.046875 "/>
<path style="fill:none;stroke-width:1.2;stroke-linecap:butt;stroke-linejoin:miter;stroke:rgb(0%,0%,0%);stroke-opacity:1;stroke-miterlimit:10;" d="M 185.476562 147.910156 L 193.6875 169.882812 "/>
<path style="fill:none;stroke-width:1.2;stroke-linecap:butt;stroke-linejoin:miter;stroke:rgb(0%,0%,0%);stroke-opacity:1;stroke-miterlimit:10;" d="M 196.648438 124.953125 L 177.988281 147.574219 "/>
<path style="fill:none;stroke-width:1.2;stroke-linecap:butt;stroke-linejoin:miter;stroke:rgb(0%,0%,0%);stroke-opacity:1;stroke-miterlimit:10;" d="M 188.25 175.046875 L 217.171875 179.894531 "/>
<path style="fill:none;stroke-width:1.2;stroke-linecap:butt;stroke-linejoin:miter;stroke:rgb(0%,0%,0%);stroke-opacity:1;stroke-miterlimit:10;" d="M 217.171875 179.894531 L 222.300781 193.628906 "/>
<path style="fill:none;stroke-width:1.2;stroke-linecap:butt;stroke-linejoin:miter;stroke:rgb(100%,0%,0%);stroke-opacity:1;stroke-miterlimit:10;" d="M 222.300781 193.628906 L 227.433594 207.363281 "/>
<path style="fill:none;stroke-width:1.2;stroke-linecap:butt;stroke-linejoin:miter;stroke:rgb(0%,0%,0%);stroke-opacity:1;stroke-miterlimit:10;" d="M 217.171875 179.894531 L 235.828125 157.273438 "/>
<path style="fill:none;stroke-width:1.2;stroke-linecap:butt;stroke-linejoin:miter;stroke:rgb(0%,0%,0%);stroke-opacity:1;stroke-miterlimit:10;" d="M 213.714844 173.242188 L 228.640625 155.144531 "/>
<path style=" stroke:none;fill-rule:nonzero;fill:rgb(100%,100%,100%);fill-opacity:1;" d="M 218.433594 200.363281 L 237.433594 200.363281 L 237.433594 214.363281 L 218.433594 214.363281 Z M 218.433594 200.363281 "/>
<g style="fill:rgb(100%,0%,0%);fill-opacity:1;">
  <use xlink:href="#glyph0-1" x="218.433594" y="211.501953"/>
  <use xlink:href="#glyph0-2" x="227.878906" y="211.501953"/>
</g>
<path style="fill:none;stroke-width:1.2;stroke-linecap:butt;stroke-linejoin:miter;stroke:rgb(0%,0%,0%);stroke-opacity:1;stroke-miterlimit:10;" d="M 235.828125 157.273438 L 250.289062 159.695312 "/>
<path style="fill:none;stroke-width:1.2;stroke-linecap:butt;stroke-linejoin:miter;stroke:rgb(100%,0%,0%);stroke-opacity:1;stroke-miterlimit:10;" d="M 250.289062 159.695312 L 264.75 162.121094 "/>
<path style="fill:none;stroke-width:1.2;stroke-linecap:butt;stroke-linejoin:miter;stroke:rgb(0%,0%,0%);stroke-opacity:1;stroke-miterlimit:10;" d="M 235.828125 157.273438 L 225.566406 129.800781 "/>
<path style=" stroke:none;fill-rule:nonzero;fill:rgb(100%,100%,100%);fill-opacity:1;" d="M 255.75 155.121094 L 274.75 155.121094 L 274.75 169.121094 L 255.75 169.121094 Z M 255.75 155.121094 "/>
<g style="fill:rgb(100%,0%,0%);fill-opacity:1;">
  <use xlink:href="#glyph0-1" x="255.75" y="166.259766"/>
  <use xlink:href="#glyph0-2" x="265.195312" y="166.259766"/>
</g>
<path style="fill:none;stroke-width:1.2;stroke-linecap:butt;stroke-linejoin:miter;stroke:rgb(0%,0%,0%);stroke-opacity:1;stroke-miterlimit:10;" d="M 225.566406 129.800781 L 234.898438 118.492188 "/>
<path style="fill:none;stroke-width:1.2;stroke-linecap:butt;stroke-linejoin:miter;stroke:rgb(100%,0%,0%);stroke-opacity:1;stroke-miterlimit:10;" d="M 234.898438 118.492188 L 244.226562 107.179688 "/>
<path style="fill:none;stroke-width:1.2;stroke-linecap:butt;stroke-linejoin:miter;stroke:rgb(0%,0%,0%);stroke-opacity:1;stroke-miterlimit:10;" d="M 225.566406 129.800781 L 196.648438 124.953125 "/>
<path style="fill:none;stroke-width:1.2;stroke-linecap:butt;stroke-linejoin:miter;stroke:rgb(0%,0%,0%);stroke-opacity:1;stroke-miterlimit:10;" d="M 221.535156 136.121094 L 198.398438 132.242188 "/>
<path style=" stroke:none;fill-rule:nonzero;fill:rgb(100%,100%,100%);fill-opacity:1;" d="M 235.226562 100.179688 L 254.226562 100.179688 L 254.226562 114.179688 L 235.226562 114.179688 Z M 235.226562 100.179688 "/>
<g style="fill:rgb(100%,0%,0%);fill-opacity:1;">
  <use xlink:href="#glyph0-1" x="235.226562" y="111.318359"/>
  <use xlink:href="#glyph0-2" x="244.671875" y="111.318359"/>
</g>
<path style="fill:none;stroke-width:1.2;stroke-linecap:butt;stroke-linejoin:miter;stroke:rgb(0%,0%,0%);stroke-opacity:1;stroke-miterlimit:10;" d="M 62.308594 128.183594 L 57.175781 114.445312 "/>
<path style="fill:none;stroke-width:1.2;stroke-linecap:butt;stroke-linejoin:miter;stroke:rgb(100%,0%,0%);stroke-opacity:1;stroke-miterlimit:10;" d="M 57.175781 114.445312 L 52.046875 100.710938 "/>
<path style="fill:none;stroke-width:1.2;stroke-linecap:butt;stroke-linejoin:miter;stroke:rgb(0%,0%,0%);stroke-opacity:1;stroke-miterlimit:10;" d="M 62.308594 128.183594 L 43.648438 150.804688 "/>
<path style="fill:none;stroke-width:1.2;stroke-linecap:butt;stroke-linejoin:miter;stroke:rgb(0%,0%,0%);stroke-opacity:1;stroke-miterlimit:10;" d="M 65.765625 134.835938 L 50.835938 152.933594 "/>
<path style=" stroke:none;fill-rule:nonzero;fill:rgb(100%,100%,100%);fill-opacity:1;" d="M 33.046875 93.710938 L 52.046875 93.710938 L 52.046875 107.710938 L 33.046875 107.710938 Z M 33.046875 93.710938 "/>
<g style="fill:rgb(100%,0%,0%);fill-opacity:1;">
  <use xlink:href="#glyph0-2" x="33.046875" y="104.849609"/>
  <use xlink:href="#glyph0-1" x="42.070312" y="104.849609"/>
</g>
<path style="fill:none;stroke-width:1.2;stroke-linecap:butt;stroke-linejoin:miter;stroke:rgb(0%,0%,0%);stroke-opacity:1;stroke-miterlimit:10;" d="M 43.648438 150.804688 L 53.910156 178.273438 "/>
<path style="fill:none;stroke-width:1.2;stroke-linecap:butt;stroke-linejoin:miter;stroke:rgb(0%,0%,0%);stroke-opacity:1;stroke-miterlimit:10;" d="M 53.910156 178.273438 L 44.578125 189.585938 "/>
<path style="fill:none;stroke-width:1.2;stroke-linecap:butt;stroke-linejoin:miter;stroke:rgb(100%,0%,0%);stroke-opacity:1;stroke-miterlimit:10;" d="M 44.578125 189.585938 L 35.25 200.894531 "/>
<path style="fill:none;stroke-width:1.2;stroke-linecap:butt;stroke-linejoin:miter;stroke:rgb(0%,0%,0%);stroke-opacity:1;stroke-miterlimit:10;" d="M 53.910156 178.273438 L 82.828125 183.121094 "/>
<path style="fill:none;stroke-width:1.2;stroke-linecap:butt;stroke-linejoin:miter;stroke:rgb(0%,0%,0%);stroke-opacity:1;stroke-miterlimit:10;" d="M 57.941406 171.953125 L 81.078125 175.832031 "/>
<path style=" stroke:none;fill-rule:nonzero;fill:rgb(100%,100%,100%);fill-opacity:1;" d="M 16.25 193.894531 L 35.25 193.894531 L 35.25 207.894531 L 16.25 207.894531 Z M 16.25 193.894531 "/>
<g style="fill:rgb(100%,0%,0%);fill-opacity:1;">
  <use xlink:href="#glyph0-2" x="16.25" y="205.033203"/>
  <use xlink:href="#glyph0-1" x="25.273438" y="205.033203"/>
</g>
</g>
</svg>

<svg xmlns="http://www.w3.org/2000/svg" xmlns:xlink="http://www.w3.org/1999/xlink" width="300pt" height="300pt" viewBox="0 0 300 300"><defs><symbol overflow="visible"><path d="M.594 2.125V-8.47h6V2.126zm.672-.672h4.671V-7.78h-4.67zm0 0"/></symbol><symbol overflow="visible" id="a"><path d="M4.734-7.953c-.867 0-1.554.324-2.062.97-.5.635-.75 1.51-.75 2.624 0 1.094.25 1.965.75 2.61.508.637 1.195.953 2.062.953.852 0 1.532-.316 2.032-.953.507-.645.765-1.516.765-2.61 0-1.113-.257-1.988-.764-2.624-.5-.645-1.18-.97-2.032-.97zm0-.953c1.22 0 2.192.414 2.922 1.234.74.824 1.11 1.93 1.11 3.313 0 1.376-.37 2.477-1.11 3.298C6.926-.24 5.953.17 4.734.17c-1.23 0-2.214-.41-2.953-1.234C1.04-1.882.673-2.984.673-4.36c0-1.382.367-2.488 1.11-3.312.738-.82 1.722-1.234 2.952-1.234zm0 0"/></symbol><symbol overflow="visible" id="b"><path d="M1.172-8.75H2.36v3.594h4.296V-8.75h1.188V0H6.656v-4.172H2.36V0H1.17zm0 0"/></symbol></defs><g><path fill="#fff" d="M0 0h300v300H0z"/><path d="M130.41 165.348l-14.46-2.422" stroke-width="1.2" stroke="#f00" stroke-miterlimit="10" fill="none"/><path d="M115.95 162.926l-14.462-2.426M149.066 142.727l-9.328 11.312" stroke-width="1.2" stroke="#000" stroke-miterlimit="10" fill="none"/><path d="M139.738 154.04l-9.328 11.308" stroke-width="1.2" stroke="#f00" stroke-miterlimit="10" fill="none"/><path d="M125.41 158.348h10v14h-10zm0 0" fill="#fff"/><use xlink:href="#a" x="125.41" y="169.486" fill="#f00"/><path d="M101.488 160.5l-10.26-27.47M94 160.168l-8.21-21.977M82.828 183.12l18.66-22.62M91.227 133.03l18.66-22.62M91.227 133.03l-28.918-4.846M109.887 110.41l28.922 4.848" stroke-width="1.2" stroke="#000" stroke-miterlimit="10" fill="none"/><path d="M138.81 115.258m2.28-1.95l-.805-.663m3.086-1.282l-1.608-1.328m3.89-.62l-2.414-1.99m4.696.044l-3.215-2.657m5.5.707l-4.025-3.317m6.305 1.37l-4.828-3.98m7.11 2.032l-5.63-4.645m7.91 2.7l-6.433-5.31m8.714 3.36l-7.24-5.972m9.353 4.172l-7.984-6.586" stroke="#000" stroke-miterlimit="10" fill="none"/><path d="M138.81 115.258l10.256 27.47" stroke-width="1.2" stroke="#000" stroke-miterlimit="10" fill="none"/><path d="M148.465 85.637h19v14h-19zm0 0" fill="#fff"/><g fill="#f00"><use xlink:href="#a" x="148.465" y="96.775"/><use xlink:href="#b" x="157.91" y="96.775"/></g><path d="M149.066 142.727l28.067 9.953 1.71-10.207zm0 0"/><path d="M177.988 147.574l10.262 27.473M185.477 147.91l8.21 21.973M196.648 124.953l-18.66 22.62M188.25 175.047l28.922 4.848M217.172 179.895l5.13 13.734" stroke-width="1.2" stroke="#000" stroke-miterlimit="10" fill="none"/><path d="M222.3 193.63l5.134 13.733" stroke-width="1.2" stroke="#f00" stroke-miterlimit="10" fill="none"/><path d="M217.172 179.895l18.656-22.622M213.715 173.242l14.926-18.097" stroke-width="1.2" stroke="#000" stroke-miterlimit="10" fill="none"/><path d="M218.434 200.363h19v14h-19zm0 0" fill="#fff"/><g fill="#f00"><use xlink:href="#a" x="218.434" y="211.502"/><use xlink:href="#b" x="227.879" y="211.502"/></g><path d="M235.828 157.273l14.46 2.422" stroke-width="1.2" stroke="#000" stroke-miterlimit="10" fill="none"/><path d="M250.29 159.695l14.46 2.426" stroke-width="1.2" stroke="#f00" stroke-miterlimit="10" fill="none"/><path d="M235.828 157.273L225.566 129.8" stroke-width="1.2" stroke="#000" stroke-miterlimit="10" fill="none"/><path d="M255.75 155.12h19v14h-19zm0 0" fill="#fff"/><g fill="#f00"><use xlink:href="#a" x="255.75" y="166.26"/><use xlink:href="#b" x="265.195" y="166.26"/></g><path d="M225.566 129.8l9.332-11.308" stroke-width="1.2" stroke="#000" stroke-miterlimit="10" fill="none"/><path d="M234.898 118.492l9.33-11.312" stroke-width="1.2" stroke="#f00" stroke-miterlimit="10" fill="none"/><path d="M225.566 129.8l-28.918-4.847M221.535 136.12l-23.137-3.878" stroke-width="1.2" stroke="#000" stroke-miterlimit="10" fill="none"/><path d="M235.227 100.18h19v14h-19zm0 0" fill="#fff"/><g fill="#f00"><use xlink:href="#a" x="235.227" y="111.318"/><use xlink:href="#b" x="244.672" y="111.318"/></g><path d="M62.31 128.184l-5.134-13.74" stroke-width="1.2" stroke="#000" stroke-miterlimit="10" fill="none"/><path d="M57.176 114.445l-5.13-13.734" stroke-width="1.2" stroke="#f00" stroke-miterlimit="10" fill="none"/><path d="M62.31 128.184l-18.662 22.62M65.766 134.836l-14.93 18.098" stroke-width="1.2" stroke="#000" stroke-miterlimit="10" fill="none"/><path d="M33.047 93.71h19v14h-19zm0 0" fill="#fff"/><g fill="#f00"><use xlink:href="#b" x="33.047" y="104.85"/><use xlink:href="#a" x="42.07" y="104.85"/></g><path d="M43.648 150.805l10.262 27.468M53.91 178.273l-9.332 11.313" stroke-width="1.2" stroke="#000" stroke-miterlimit="10" fill="none"/><path d="M44.578 189.586l-9.328 11.31" stroke-width="1.2" stroke="#f00" stroke-miterlimit="10" fill="none"/><path d="M53.91 178.273l28.918 4.848M57.94 171.953l23.138 3.88" stroke-width="1.2" stroke="#000" stroke-miterlimit="10" fill="none"/><path d="M16.25 193.895h19v14h-19zm0 0" fill="#fff"/><g fill="#f00"><use xlink:href="#b" x="16.25" y="205.033"/><use xlink:href="#a" x="25.273" y="205.033"/></g></g></svg>
